packages/ffe-icons/icons/open/300/md/swipe_down_alt.svg

<svg xmlns="http://www.w3.org/2000/svg" height="24" viewBox="0 -960 960 960" width="24"><path d="M479.949-115.078q-7.18 0-13.41-2.308-6.231-2.308-11.979-8.056l-99.636-99.636q-8.308-8.307-8.5-20.576-.193-12.269 8.416-21.577 9.391-9.307 21.468-9.307 12.076 0 21.384 9.307l52.309 52.309v-187.539q-69-11.308-114.5-63.692-45.5-52.385-45.5-123.846 0-78.85 55.558-134.425 55.558-55.575 134.384-55.575t134.441 55.575q55.615 55.575 55.615 134.425 0 71.461-45.5 123.846-45.5 52.384-114.5 63.692v187.539l52.925-52.924q8.307-8.308 20.576-8.5 12.269-.192 21.66 9.199 8.609 8.608 8.609 20.993 0 12.384-8.693 21.076l-99.636 99.636q-5.748 5.748-12.03 8.056-6.282 2.308-13.461 2.308Zm.096-344.921q54.186 0 92.071-37.93t37.885-92.115q0-54.186-37.93-92.071T479.955-720q-54.186 0-92.071 37.93t-37.885 92.116q0 54.186 37.93 92.071 37.93 37.884 92.116 37.884Zm-.045-130Z"/></svg>

<svg xmlns="http://www.w3.org/2000/svg" height="24" viewBox="0 -960 960 960" width="24"><path d="M479.95-115.08q-7.18 0-13.41-2.31-6.23-2.3-11.98-8.05l-99.64-99.64q-8.3-8.31-8.5-20.57-.19-12.27 8.42-21.58 9.39-9.31 21.47-9.31 12.07 0 21.38 9.31L450-214.92v-187.54q-69-11.31-114.5-63.69Q290-518.54 290-590q0-78.85 55.56-134.42Q401.12-780 479.94-780q78.83 0 134.44 55.58Q670-668.85 670-590q0 71.46-45.5 123.85Q579-413.77 510-402.46v187.54l52.92-52.93q8.31-8.3 20.58-8.5 12.27-.19 21.66 9.2 8.61 8.61 8.61 21 0 12.38-8.69 21.07l-99.64 99.64q-5.75 5.75-12.03 8.05-6.28 2.31-13.46 2.31Zm.1-344.92q54.18 0 92.07-37.93Q610-535.86 610-590.04q0-54.19-37.93-92.08Q534.14-720 479.95-720q-54.18 0-92.07 37.93Q350-644.14 350-589.95q0 54.18 37.93 92.07Q425.86-460 480.05-460ZM480-590Z"/></svg>
